X: 23820
T: Little Katie Taylor
R: reel
M: 4/4
K: Dmajor
|:"D"D2 FD GEFE|D/D/D FA d2 ef|"G"geaf fged|"A"cA A/A/A EFGE|
"D"D2 FD GEFE|D/D/D FA d2 ef|"G"geaf edcd|1 "D"ed d/d/d dBAF:|2 "D"edce d3 g||
|:"D"fdfa g/g/g ag|"D"fdfa g/g/g ag|fd"C"=cA "G"BG G/G/G|"A"ABcA "G"dcAg|
"D"fdfa g/g/g ag|"D"fdfa g/g/g ag|fd"C"=cA "G"BG G/G/G|1 ABcA d3 g:|2 "A"ABcA "D"dBAF||D8||

